projects/samara2/images/icons/credit.svg

<svg width="97" height="81" viewBox="0 0 97 81" fill="none" xmlns="http://www.w3.org/2000/svg">
<path d="M86.3736 15.9829H10.6263C7.63339 15.9829 5.2027 18.4137 5.2027 21.4065V55.6797H91.7972V21.4065C91.7972 18.4137 89.3665 15.9829 86.3736 15.9829ZM36.9996 34.0158C36.941 34.2846 25.8942 48.5698 25.8942 48.5698C25.3365 49.5048 23.8693 49.5087 23.3116 48.5698C23.3116 48.5698 12.38 34.411 12.343 34.3501C12.1044 33.9347 12.0735 33.3815 12.2973 32.9373L15.3205 26.6782C15.913 25.4476 17.1892 24.6424 18.5564 24.6424H30.6493C32.0166 24.6424 33.2927 25.4476 33.8852 26.6782L36.9084 32.9373C37.0726 33.2782 37.1085 33.6558 36.9996 34.0158ZM81.4362 49.2839H57.8582C57.0074 49.2839 56.339 48.6002 56.339 47.7647C56.339 46.929 57.0074 46.2455 57.8582 46.2455H81.4362C83.4244 46.2814 83.4379 49.2451 81.4362 49.2839ZM81.4362 41.7334H67.1558C65.1646 41.7072 65.1547 38.7329 67.1559 38.695C67.1558 38.695 81.4362 38.695 81.4362 38.695C83.4295 38.7314 83.4352 41.7056 81.4362 41.7334Z" fill="white"/>
<path d="M30.6494 27.6804H28.7656L29.4643 32.0861H33.1257L31.1507 27.9995C31.0596 27.802 30.8621 27.6804 30.6494 27.6804Z" fill="white"/>
<path d="M20.4404 27.6804H18.5565C18.3439 27.6804 18.1464 27.802 18.0552 27.9995L16.0802 32.0861H19.7415L20.4404 27.6804Z" fill="white"/>
<path d="M27.8389 41.0954L32.4572 35.125H29.3429L27.8389 41.0954Z" fill="white"/>
<path d="M24.603 41.5208L26.2133 35.125H22.9926L24.603 41.5208Z" fill="white"/>
<path d="M16.7486 35.125L21.367 41.0954L19.863 35.125H16.7486Z" fill="white"/>
<path d="M23.5089 27.6804L22.8252 32.0862H26.3802L25.6965 27.6804H23.5089Z" fill="white"/>
<path d="M5.2027 58.718V63.8225C5.2027 66.8154 7.63339 69.2461 10.6263 69.2461H86.3736C89.3665 69.2461 91.7972 66.8154 91.7972 63.8225V58.718H5.2027Z" fill="white"/>
</svg>

<svg width="97" height="81" fill="none" xmlns="http://www.w3.org/2000/svg"><path d="M86.374 15.983H10.626a5.427 5.427 0 00-5.423 5.424V55.68h86.594V21.407a5.427 5.427 0 00-5.423-5.424zM37 34.016c-.059.269-11.106 14.554-11.106 14.554-.557.935-2.025.939-2.582 0 0 0-10.932-14.159-10.969-14.22a1.525 1.525 0 01-.046-1.413l3.023-6.259a3.623 3.623 0 013.236-2.036H30.65c1.368 0 2.644.806 3.236 2.036l3.023 6.26c.165.34.2.718.092 1.078zm44.436 15.268H57.858c-.85 0-1.519-.684-1.519-1.52 0-.835.668-1.519 1.52-1.519h23.577c1.988.036 2.002 3 0 3.039zm0-7.55h-14.28c-1.991-.027-2.001-3.001 0-3.039h14.28c1.993.036 2 3.01 0 3.038z" fill="#fff"/><path d="M30.65 27.68h-1.884l.698 4.406h3.662L31.15 28a.551.551 0 00-.502-.32zm-10.21 0h-1.884a.551.551 0 00-.5.32l-1.976 4.086h3.662l.698-4.406zm7.399 13.415l4.618-5.97h-3.114l-1.504 5.97zm-3.236.425l1.61-6.395h-3.22l1.61 6.396zm-7.854-6.395l4.618 5.97-1.504-5.97h-3.114zm6.76-7.445l-.684 4.406h3.555l-.683-4.406h-2.188zM5.203 58.718v5.104a5.427 5.427 0 005.423 5.424h75.748a5.427 5.427 0 005.423-5.423v-5.105H5.203z" fill="#fff"/></svg>
